X:1
T:Oh, for a Heart Whiter Than Snow
T:Oh, for a Heart Whiter Than Snow
T:William James Kirkpatrick
T:Eliza Edmunds Hewitt, 1892
T:Public Domain Courtesy of the Cyber Hymnal™
T:Public Domain Courtesy of the Cyber Hymnal™
C:William James Kirkpatrick
Z:Public Domain
Z:Courtesy of the Cyber Hymnal™
%%score ( 1 2 ) ( 3 4 )
L:1/8
Q:1/4=130
M:4/4
K:Eb
V:1 treble 
V:2 treble 
V:3 bass 
V:4 bass 
V:1
 [EG]4 [EG]2 [FA]2 | [GB]4 [GB]2 [GB]2 |!<(! ([Ac]2 [ce]2) [Bd]2 [Ac]2!<)! | [GB]6 z2 | %4
w: 1.~Oh, for a|heart that is|whit- * er than|snow,|
w: 2.~Oh, for a|heart that is|whit- * er than|snow!|
w: 3.~Oh, for a|heart that is|whit- * er than|snow!|
w: 4.~Oh, for a|heart that is|whit- * er than|snow!|
 [GB]4 [FA]2 [EG]2 | [FA]4 [EG]2 [DF]2 |!>(! [EG]4 [B,F]2 [CE]2!>)! | [DF]6 z2 | %8
w: Kept, ev- er|kept ’neath the|life giv- ing|flow,|
w: Calm in the|peace that He|loves to be-|stow;|
w: With the pure|flame of the|Spir- it a-|glow;|
w: Then in His|grace and His|know- ledge to|grow,|
 [EG]4 [EG]2 [FA]2 | [GB]4 [GB]2 [GB]2 |!>(! ([Ac]2 [ce]2) [Bd]2 [Ac]2!>)! | [GB]6 z2 | %12
w: Cleansed from all|pas- sion, self-|seek- * ing and|pride,|
w: Dai- ly re-|freshed by the|heav- * en- ly|dews,|
w: Filled with the|love that is|true * and sin-|cere,|
w: Grow- ing like|Him who my|pat- * tern shall|be,|
 [Af]4 [Ge]2 [Fd]2 | [Ge]4 [Ec]2 [EA]2 | [EG]4 [DG]2 [DF]2 | E6 z2 ||"^Refrain" [DF]4 [DF]2 [EG]2 | %17
w: Washed in the|fount- ain of|Cal- va- ry’s|tide.||
w: Rea- dy for|ser- vice when-|e’er He shall|choose.|Oh, for a|
w: Love that is|a- ble to|ban- ish all|fear.||
w: Till in His|beau- ty my|King I shall|see.||
 [FA]8 |!>(! [EG]4 [EG]2 [DA]2 | [EB]8!>)! | (c2 e2) [Ed]2 [Ec]2 | [EB]4 [EG]2 [EB]2 | %22
w: |||||
w: heart|whit- er than|snow!|Sav- * ior di-|vine, to whom|
w: |||||
w: |||||
!>(! [EB]4 [DA]2!>)! [EG]2 | [DF]6 z2 | [EG]4 [EG]2 [DA]2 | [EB]8 |!>(! (c2 e2) [Ed]2!>)! [Ec]2 | %27
w: |||||
w: else shall I|go?|Thou who didst|die,|lov- * ing me|
w: |||||
w: |||||
 [GB]6 z2 | [Af]4 [Ge]2 [Fd]2 | [Ge]4!>(! [Ec]2 [EA]2 | [EG]4!>)! [DG]2 [DF]2 | E6 z2 |] %32
w: |||||
w: so,|Give me a|heart that is|whit- er than|snow!|
w: |||||
w: |||||
V:2
 x8 | x8 | x8 | x8 | x8 | x8 | x8 | x8 | x8 | x8 | x8 | x8 | x8 | x8 | x8 | E6 x2 || x8 | x8 | x8 | %19
 x8 | E4 x4 | x8 | x8 | x8 | x8 | x8 | E4 x4 | x8 | x8 | x8 | x8 | E6 x2 |] %32
V:3
 [E,B,]4 [E,B,]2 [E,B,]2 | [E,E]4 [E,E]2 [E,E]2 | [A,E]4 [A,E]2 [A,E]2 | [E,E]6 z2 | %4
 [E,B,]4 [D,B,]2 [E,B,]2 | [B,,B,]4 [B,,B,]2 [B,,B,]2 | [E,B,]4 [D,B,]2 [C,=A,]2 | [B,,B,]6 z2 | %8
 [E,B,]4 [E,B,]2 [E,B,]2 | [E,E]4 [E,E]2 [E,E]2 | [A,E]4 [A,E]2 [A,E]2 | [E,E]6 z2 | %12
 [D,B,]4 [B,,B,]2 [B,,B,]2 | [E,B,]4 [A,,A,]2 [A,,C]2 | [B,,B,]4 [B,,B,]2 [B,,A,]2 | [E,G,]6 z2 || %16
 B,4 [F,B,]2 [E,B,]2 | B,8 | B,4 [E,B,]2 [F,B,]2 | B,8 | (A,2 C2) [A,B,]2 A,2 | %21
 [E,G,]4 [E,B,]2 [G,B,]2 | [G,B,]4 [F,B,]2 [E,B,]2 | [B,,B,]6 z2 | [E,B,]4 [E,B,]2 [F,B,]2 | B,8 | %26
 (A,2 C2) [A,B,]2 A,2 | [E,G,]6 z2 | [D,B,]4 [B,,B,]2 [B,,B,]2 | [E,B,]4 [A,,A,]2 [A,,C]2 | %30
 [B,,B,]4 [B,,B,]2 [B,,A,]2 | [E,G,]6 z2 |] %32
V:4
 x8 | x8 | x8 | x8 | x8 | x8 | x8 | x8 | x8 | x8 | x8 | x8 | x8 | x8 | x8 | x8 || (B,2 A,2) x4 | %17
 (D,2 B,,2 C,2 D,2) | (E,2 B,,2) x4 | (G,2 E,2 F,2 G,2) | A,4 A,2 x2 | x8 | x8 | x8 | x8 | %25
 (G,2 E,2 F,2 G,2) | A,4 A,2 x2 | x8 | x8 | x8 | x8 | x8 |] %32

